app/img/qr-small.svg

<svg width="21" height="21" viewBox="0 0 21 21" fill="none" xmlns="http://www.w3.org/2000/svg">
<path d="M6.95442 1H2.08262C1.48471 1 1 1.48471 1 2.08262V6.95442C1 7.55233 1.48471 8.03704 2.08262 8.03704H6.95442C7.55233 8.03704 8.03704 7.55233 8.03704 6.95442V2.08262C8.03704 1.48471 7.55233 1 6.95442 1Z" stroke="black" stroke-width="1.5" stroke-linecap="round" stroke-linejoin="round"/>
<path d="M6.95442 12.9629H2.08262C1.48471 12.9629 1 13.4476 1 14.0455V18.9173C1 19.5152 1.48471 19.9999 2.08262 19.9999H6.95442C7.55233 19.9999 8.03704 19.5152 8.03704 18.9173V14.0455C8.03704 13.4476 7.55233 12.9629 6.95442 12.9629Z" stroke="black" stroke-width="1.5" stroke-linecap="round" stroke-linejoin="round"/>
<path d="M18.9173 1H14.0455C13.4476 1 12.9629 1.48471 12.9629 2.08262V6.95442C12.9629 7.55233 13.4476 8.03704 14.0455 8.03704H18.9173C19.5152 8.03704 19.9999 7.55233 19.9999 6.95442V2.08262C19.9999 1.48471 19.5152 1 18.9173 1Z" stroke="black" stroke-width="1.5" stroke-linecap="round" stroke-linejoin="round"/>
<rect x="3.81494" y="3.8147" width="1.40741" height="1.40741" fill="black"/>
<rect x="3.81494" y="15.7778" width="1.40741" height="1.40741" fill="black"/>
<rect x="15.7778" y="3.8147" width="1.40741" height="1.40741" fill="black"/>
<path d="M17.1851 20.0001H19.9999V17.1853" stroke="black" stroke-width="1.5"/>
<path d="M15.7778 12.963L12.963 12.963L12.963 15.7778" stroke="black" stroke-width="1.5"/>
<path d="M12.963 17.1853L12.963 20.0001L15.7778 20.0001" stroke="black" stroke-width="1.5"/>
<path d="M19.9999 15.7778L19.9999 12.963L17.1851 12.963" stroke="black" stroke-width="1.5"/>
</svg>

<svg width="21" height="21" fill="none" xmlns="http://www.w3.org/2000/svg"><path d="M6.954 1H2.083C1.485 1 1 1.485 1 2.083v4.871c0 .598.485 1.083 1.083 1.083h4.871c.598 0 1.083-.485 1.083-1.083V2.083C8.037 1.485 7.552 1 6.954 1zM6.954 12.963H2.083c-.598 0-1.083.485-1.083 1.083v4.871C1 19.515 1.485 20 2.083 20h4.871c.598 0 1.083-.485 1.083-1.083v-4.872c0-.597-.485-1.082-1.083-1.082zM18.917 1h-4.872c-.597 0-1.082.485-1.082 1.083v4.871c0 .598.485 1.083 1.083 1.083h4.871c.598 0 1.083-.485 1.083-1.083V2.083C20 1.485 19.515 1 18.917 1z" stroke="#000" stroke-width="1.5" stroke-linecap="round" stroke-linejoin="round"/><path fill="#000" d="M3.815 3.815h1.407v1.407H3.815zM3.815 15.778h1.407v1.407H3.815zM15.778 3.815h1.407v1.407h-1.407z"/><path d="M17.185 20H20v-2.815M15.778 12.963h-2.815v2.815M12.963 17.185V20h2.815M20 15.778v-2.815h-2.815" stroke="#000" stroke-width="1.5"/></svg>
